src/images/asterisk.svg

<svg xmlns="http://www.w3.org/2000/svg" width="34" height="33" fill="none" viewBox="0 0 34 33"><path fill="#F96132" d="M0.197266 20.4L5.19727 29.1L13.9973 21.7L11.9973 33H21.9973L19.9973 21.7L28.7973 29.1L33.7973 20.4L23.0973 16.5L33.7973 12.6L28.7973 3.9L19.9973 11.3L21.9973 -4.76837e-06H11.9973L13.9973 11.3L5.19727 3.9L0.197266 12.6L10.9973 16.5L0.197266 20.4Z"/></svg>

<svg fill="none" viewBox="0 0 34 33"><path fill="#F96132" d="M.197 20.4l5 8.7 8.8-7.4-2 11.3h10l-2-11.3 8.8 7.4 5-8.7-10.7-3.9 10.7-3.9-5-8.7-8.8 7.4 2-11.3h-10l2 11.3-8.8-7.4-5 8.7 10.8 3.9-10.8 3.9z"/></svg>
